_includes/icons/color-npm.svg

<svg fill="#666" height="50" viewBox="0 0 48 48" width="50" xmlns="http://www.w3.org/2000/svg"><path d="m0 15h48v17h-24v3h-11v-3h-13z" fill="#d50000"/><g fill="#fff"><path d="m3 29h5v-8h3v8h2v-11h-10z"/><path d="m16 18v14h5v-3h5v-11zm8 8h-3v-5h3z"/><path d="m29 18v11h5v-8h3v8h3v-8h3v8h2v-11z"/></g></svg>

<svg xmlns="http://www.w3.org/2000/svg" viewBox="0 0 48 48" width="50" height="50" fill="#666"><path d="M 0 15 L 48 15 L 48 32 L 24 32 L 24 35 L 13 35 L 13 32 L 0 32 Z" fill="#d50000"/><path d="M 3 29 L 8 29 L 8 21 L 11 21 L 11 29 L 13 29 L 13 18 L 3 18 Z" fill="#fff"/><path d="M 16 18 L 16 32 L 21 32 L 21 29 L 26 29 L 26 18 Z M 24 26 L 21 26 L 21 21 L 24 21 Z" fill="#fff"/><path d="M 29 18 L 29 29 L 34 29 L 34 21 L 37 21 L 37 29 L 40 29 L 40 21 L 43 21 L 43 29 L 45 29 L 45 18 Z" fill="#fff"/></svg>
